X:372
T: KEIN SCHOENERES FREIERES LEBEN
N: B0444
O: Europa, Mitteleuropa, Deutschland, Thueringen; Westfalen
R: Liebes - Lied, anti - Ehe
M: 6/8
L: 1/16
K: G
D2 | B3AG2A3GF2 | G6D4
D2 | E2E2E2F2F2F2 | G6z4
B2 | A3GF2G3FE2 | F4A2d4
F2 | E2E2E2A2G2^C2 | D6z4
D2 | D3DD2D2F2G2 | A2A2z6
D2 | A2A2A2A2B2c2 | B6z4
G2 | G2G2G2G2F2G2 | E2c2z6
c2 | B2A2G2A2G2F2 | d6
e2c2A2 | G2G2G2B2A2F2 | G4z6

@@@ Tune index: 2175
